Origami/64x64/apps/fiji.svg

<svg width="64" height="64" version="1" xmlns="http://www.w3.org/2000/svg">
 <rect transform="matrix(0,-1,-1,0,0,0)" x="-60" y="-59" width="55" height="55" rx="2.75" ry="2.75" style="opacity:.2"/>
 <rect transform="matrix(0,-1,-1,0,0,0)" x="-59" y="-59" width="55" height="55" rx="2.75" ry="2.75" style="fill:#4f4f4f"/>
 <path d="m10 12v6 35h7v-33h36v-8h-37zm12 13v16h7v-16zm12 0v21h-12v7h19v-7-21zm12 0v28h7v-28z" style="opacity:.2"/>
 <path d="m10 11v6 35h7v-33h36v-8h-37zm12 13v16h7v-16zm12 0v21h-12v7h19v-7-21zm12 0v28h7v-28z" style="fill:#3693ee"/>
 <path d="m6.75 4c-1.5235 0-2.75 1.2265-2.75 2.75v1c0-1.5235 1.2265-2.75 2.75-2.75h49.5c1.5235 0 2.75 1.2265 2.75 2.75v-1c0-1.5235-1.2265-2.75-2.75-2.75h-49.5z" style="fill:#ffffff;opacity:.1"/>
 <path d="m10 11v1h6 37v-1h-37-6zm12 13v1h7v-1h-7zm12 0v1h7v-1h-7zm12 0v1h7v-1h-7zm-24 21v1h12v-1h-12z" style="fill:#ffffff;opacity:.1"/>
</svg>

<svg xmlns="http://www.w3.org/2000/svg" width="64" height="64" version="1">
 <rect width="55" height="55" x="-60" y="-59" rx="2.75" ry="2.75" transform="matrix(0,-1,-1,0,0,0)" style="opacity:0.2"/>
 <rect style="fill:#4f4f4f" width="55" height="55" x="-59" y="-59" rx="2.75" ry="2.75" transform="matrix(0,-1,-1,0,0,0)"/>
 <path d="m 10,12 0,6 0,35 7,0 0,-33 36,0 0,-8 -37,0 z m 12,13 0,16 7,0 0,-16 z m 12,0 0,21 -12,0 0,7 19,0 0,-7 0,-21 z m 12,0 0,28 7,0 0,-28 z" style="opacity:0.2"/>
 <path style="fill:#3693ee" d="m 10,11 0,6 0,35 7,0 0,-33 36,0 0,-8 -37,0 z m 12,13 0,16 7,0 0,-16 z m 12,0 0,21 -12,0 0,7 19,0 0,-7 0,-21 z m 12,0 0,28 7,0 0,-28 z"/>
 <path style="fill:#ffffff;opacity:0.1" d="M 6.75 4 C 5.2265 4 4 5.2265 4 6.75 L 4 7.75 C 4 6.2265 5.2265 5 6.75 5 L 56.25 5 C 57.7735 5 59 6.2265 59 7.75 L 59 6.75 C 59 5.2265 57.7735 4 56.25 4 L 6.75 4 z"/>
 <path style="fill:#ffffff;opacity:0.1" d="M 10 11 L 10 12 L 16 12 L 53 12 L 53 11 L 16 11 L 10 11 z M 22 24 L 22 25 L 29 25 L 29 24 L 22 24 z M 34 24 L 34 25 L 41 25 L 41 24 L 34 24 z M 46 24 L 46 25 L 53 25 L 53 24 L 46 24 z M 22 45 L 22 46 L 34 46 L 34 45 L 22 45 z"/>
</svg>
